app/images/btn-google-play-hover.svg

<?xml version="1.0" encoding="UTF-8" standalone="no"?>
<svg width="163px" height="51px" viewBox="0 0 163 51" version="1.1" xmlns="http://www.w3.org/2000/svg" xmlns:xlink="http://www.w3.org/1999/xlink">
    <!-- Generator: sketchtool 3.6.1 (26313) - http://www.bohemiancoding.com/sketch -->
    <title>85F52918-868F-4F85-9DC0-470D33C66226</title>
    <desc>Created with sketchtool.</desc>
    <defs></defs>
    <g id="wecare" stroke="none" stroke-width="1" fill="none" fill-rule="evenodd">
        <g id="desktop_ui_kit" transform="translate(-1961.000000, -558.000000)">
            <g id="google-play-copy" transform="translate(1961.000000, 558.000000)">
                <rect id="bg" fill="#16663B" x="0.0953822066" y="0.53125" width="161" height="49.4791667" rx="40"></rect>
                <g id="google-play-+-logotype-+-Disponível-na-Copy" transform="translate(16.595382, 6.770833)" fill="#EBEBEB">
                    <g id="google-play" transform="translate(0.489367, 12.564490)">
                        <path d="M0.928065398,0.851254646 C0.510164605,0.980848238 0.239720332,1.40027183 0.239720332,2.03483356 L0.242295992,22.0062913 C0.242295992,22.6338307 0.50436937,23.0468704 0.910679695,23.1847631 L12.1824106,12.0090714 L0.928065398,0.851254646" id="left"></path>
                        <path d="M0.910679695,23.1847631 C1.20301708,23.2830755 1.56940467,23.2371113 1.96863193,23.0200579 L15.7239428,15.5202278 L12.1824106,12.0090714 L0.910679695,23.1847631" id="bottom"></path>
                        <path d="M15.7258745,15.5202278 L20.4161509,12.9634675 C21.3672133,12.443178 21.3672133,11.5966701 20.4161509,11.0776573 L15.7084888,8.51132119 L12.1824106,12.0071562 L15.7258745,15.5202278" id="right"></path>
                        <path d="M15.7078449,8.51132119 L1.96863193,1.02170533 C1.5790634,0.810397553 1.21975886,0.761241363 0.928709313,0.851254646 L12.1824106,12.0071562 L15.7078449,8.51132119" id="top"></path>
                    </g>
                    <path d="M40.8160116,29.4591761 L37.9029405,30.1205503 C36.7226444,30.3050456 35.6627604,30.4671972 34.5404167,30.4671972 C28.9216149,30.4671972 26.7805978,26.3668049 26.7805978,23.1576079 C26.7805978,19.2385189 29.8140811,15.6047912 35.0091868,15.6047912 C36.1083495,15.6047912 37.1656579,15.7650277 38.1289546,16.0254916 C39.6556769,16.4506607 40.3697786,16.9747806 40.8160116,17.2818472 L39.1238032,18.8752739 L38.4103454,19.0335951 L38.9190382,18.2298595 C38.2300493,17.5627397 36.9634686,16.3312814 34.5597341,16.3312814 C31.3459547,16.3312814 28.9216149,18.753341 28.9216149,22.2893947 C28.9216149,26.0871892 31.6898053,29.6596312 36.1295987,29.6596312 C37.4341704,29.6596312 38.1057737,29.3998057 38.7155611,29.1572167 L38.7155611,25.9014171 L35.6395795,26.0654838 L37.2699721,25.1972706 L41.5867778,25.1972706 L41.0587676,25.700962 C40.9164624,25.8209797 40.8971449,25.8618368 40.8572222,26.0227116 C40.835973,26.2065685 40.8160116,26.7913356 40.8160116,26.9968979 L40.8160116,29.4591761 Z M47.4966291,30.2067332 C44.0420255,30.2067332 42.1972092,27.5401695 42.1972092,25.1257707 C42.1972092,22.3047161 44.5210982,19.8909557 47.8243818,19.8909557 C51.0169121,19.8909557 53.015624,22.3704705 53.015624,24.9738334 C53.015624,27.516549 51.0407369,30.2067332 47.4966291,30.2067332 Z M50.214594,28.4639229 C50.7361651,27.7744594 50.866236,26.9139069 50.866236,26.0750597 C50.866236,24.1777585 49.9518768,20.5593522 47.2596684,20.5593522 C46.5404154,20.5593522 45.8263138,20.8370527 45.3047427,21.2903111 C44.4547749,22.0442521 44.3040989,22.991626 44.3040989,23.9211248 C44.3040989,26.049524 45.3697781,29.5600421 47.9988828,29.5600421 C48.8469187,29.5600421 49.7129843,29.1521095 50.214594,28.4639229 Z M59.0606974,30.2067332 C55.6067377,30.2067332 53.7587019,27.5401695 53.7587019,25.1257707 C53.7587019,22.3047161 56.0819469,19.8909557 59.3865184,19.8909557 C62.5809804,19.8909557 64.5816241,22.3704705 64.5816241,24.9738334 C64.5816241,27.516549 62.6041613,30.2067332 59.0606974,30.2067332 Z M61.7780185,28.4639229 C62.3034531,27.7744594 62.4309482,26.9139069 62.4309482,26.0750597 C62.4309482,24.1777585 61.5191647,20.5593522 58.8243807,20.5593522 C58.1077033,20.5593522 57.3858747,20.8370527 56.8655914,21.2903111 C56.0169115,22.0442521 55.8655915,22.991626 55.8655915,23.9211248 C55.8655915,26.049524 56.9267633,29.5600421 59.5603754,29.5600421 C60.4103431,29.5600421 61.2776966,29.1521095 61.7780185,28.4639229 Z M72.5326857,20.9481329 C73.0317198,21.3547887 74.0729303,22.2178948 74.0729303,23.8547321 C74.0729303,25.4500739 73.1656541,26.2020997 72.250651,26.9139069 C71.9699041,27.194161 71.6415075,27.4980357 71.6415075,27.9678922 C71.6415075,28.4447711 71.9699041,28.7033199 72.2062209,28.8961143 L72.9911532,29.4968413 C73.9454351,30.2954697 74.8153642,31.0277055 74.8153642,32.515159 C74.8153642,34.5414155 72.8372575,36.5849085 69.0993313,36.5849085 C65.9505873,36.5849085 64.4283723,35.0980933 64.4283723,33.5040283 C64.4283723,32.7283819 64.8179409,31.6297092 66.1031951,30.8770449 C67.4502651,30.0605415 69.2751201,29.9513764 70.2525829,29.8875372 C69.9473673,29.4968413 69.5990093,29.0876319 69.5990093,28.4198738 C69.5990093,28.0547135 69.7097626,27.8370218 69.8166525,27.5803882 C69.5790479,27.602732 69.3395116,27.6257141 69.1218683,27.6257141 C66.8172968,27.6257141 65.5146568,25.9212072 65.5146568,24.2415977 C65.5146568,23.2508132 65.9705486,22.151502 66.9068009,21.3547887 C68.1456933,20.3435756 69.6228341,20.1692946 70.7966911,20.1692946 L75.2744755,20.1692946 L73.8823314,20.9481329 L72.5326857,20.9481329 Z M70.9930851,30.5118847 C70.8147207,30.4889025 70.7078308,30.4889025 70.4927632,30.4889025 C70.2957252,30.4889025 69.1218683,30.5310364 68.2126604,30.8336343 C67.731656,31.0079153 66.3414436,31.5230977 66.3414436,33.0533235 C66.3414436,34.5803574 67.8424093,35.6815837 70.1643666,35.6815837 C72.250651,35.6815837 73.3581847,34.6901608 73.3581847,33.355283 C73.3581847,32.2566102 72.6415074,31.6769502 70.9930851,30.5118847 Z M71.6176826,26.4185147 C72.1199363,25.9212072 72.1637225,25.2342973 72.1637225,24.8442398 C72.1637225,23.2948622 71.2319776,20.8817402 69.4257962,20.8817402 C68.8623706,20.8817402 68.2519392,21.1619943 67.905513,21.5954625 C67.5378376,22.0442521 67.4277281,22.6264657 67.4277281,23.1863356 C67.4277281,24.6291017 68.276408,27.0217952 70.1431174,27.0217952 C70.6878694,27.0217952 71.273832,26.759416 71.6176826,26.4185147 Z M78.4715132,28.3151775 C78.4715132,29.1521095 78.6221893,29.2823415 79.3362909,29.3480959 C79.7084738,29.3915066 80.0793688,29.4106583 80.4464003,29.454069 L79.6427944,29.9283943 L75.8134323,29.9283943 C76.315686,29.2823415 76.4019706,29.2178639 76.4019706,28.7875877 L76.4019706,28.3068784 L76.3935997,15.4981798 L74.7026791,15.4981798 L76.330496,14.7206182 L79.4380295,14.7206182 C78.7644945,15.1074838 78.5629491,15.3430505 78.4766645,16.0969915 L78.4715132,28.3151775 Z M89.1521302,28.4817978 L88.1128515,29.454069 C87.8726712,29.5849394 87.6337788,29.7368767 87.3955303,29.8447649 C86.6737016,30.1697065 85.9396386,30.2514207 85.2873528,30.2514207 C84.5932125,30.2514207 83.5049962,30.2067332 82.3948869,29.4106583 C80.8527106,28.3336909 80.1785317,26.4823539 80.1785317,24.8691371 C80.1785317,21.5290697 82.9209654,19.8909557 85.1579259,19.8909557 C85.9396386,19.8909557 86.7426005,20.0850268 87.3955303,20.4942362 C88.4811709,21.2060433 88.7619178,22.1310735 88.9177452,22.6264657 L83.809568,24.6725123 L82.136677,24.8014675 C82.6782095,27.5401695 84.5468506,29.1329578 86.6118858,29.1329578 C87.6434375,29.1329578 88.4090524,28.7990787 89.1115636,28.4549854 C89.1115636,28.4549854 89.252581,28.3822087 89.1521302,28.4817978 Z M86.0703533,23.0343982 C86.4850346,22.8850145 86.7007461,22.7560593 86.7007461,22.456015 C86.7007461,21.5954625 85.7187758,20.601486 84.5468506,20.601486 C83.6788533,20.601486 82.0491046,21.2717977 82.0491046,23.5993752 C82.0491046,23.9626203 82.0928908,24.3494859 82.1147839,24.7363515 L86.0703533,23.0343982 Z M95.4154908,28.5737263 L95.4154908,34.0607062 L94.316328,34.0607062 L94.316328,20.0984331 L95.4154908,20.0984331 L95.4154908,21.6886677 C96.1315242,20.6608565 97.4399594,19.8462682 98.9595986,19.8462682 C101.685291,19.8462682 103.521092,21.8961452 103.521092,25.1410921 C103.521092,28.3643337 101.685291,30.4569829 98.9595986,30.4569829 C97.5249561,30.4569829 96.2397019,29.7234704 95.4154908,28.5737263 Z M102.340152,25.1410921 C102.340152,22.6954121 101.054254,20.8300304 98.7741511,20.8300304 C97.3581822,20.8300304 96.0040291,21.9331719 95.4154908,22.8952288 L95.4154908,27.3646117 C96.0040291,28.3285837 97.3581822,29.471944 98.7741511,29.471944 C101.054254,29.471944 102.340152,27.5906025 102.340152,25.1410921 Z M105.022058,16.2431833 L106.120577,16.2431833 L106.120577,30.2054565 L105.022058,30.2054565 L105.022058,16.2431833 Z M115.243563,30.175452 C115.170157,29.8249748 115.11478,29.515993 115.074214,29.2580826 C115.04073,29.0008106 115.021413,28.7377931 115.021413,28.4703068 C114.644723,29.0186856 114.110917,29.4751359 113.429011,29.8345507 C112.746461,30.196519 112.098039,30.373992 111.208792,30.373992 C110.137962,30.373992 109.306668,30.1128896 108.713622,29.5830242 C108.122508,29.0537971 107.825019,28.3368828 107.825019,27.4297277 C107.825019,26.5238493 108.255799,25.7884217 109.114781,25.2259982 C109.973764,24.6610213 111.083873,24.3801287 112.457987,24.3801287 L115.021413,24.3801287 L115.021413,23.1244115 C115.021413,22.4011133 114.772862,21.832306 114.276403,21.4199047 C113.778013,21.006865 113.078721,20.7981108 112.172089,20.7981108 C111.343371,20.7981108 110.671123,20.98899 110.159211,21.3605342 C109.651806,21.7397391 109.396172,22.2095957 109.396172,22.7758495 L108.271252,22.7758495 L108.248072,22.7215861 C108.207505,21.9580692 108.559726,21.2883959 109.308599,20.7100127 C110.054253,20.1322679 111.031072,19.8417995 112.233261,19.8417995 C113.431587,19.8417995 114.401323,20.1277991 115.132166,20.6985216 C115.862366,21.2634986 116.228753,22.0800021 116.228753,23.1473936 L116.228753,28.1332358 C116.228753,28.4913737 116.246139,28.8373822 116.291213,29.1744533 C116.337575,29.5121627 116.411625,29.8492337 116.510144,30.175452 L115.243563,30.175452 Z M111.343371,29.3812923 C112.277047,29.3812923 112.948007,29.1744533 113.633776,28.7652439 C114.315038,28.3585882 114.778657,27.8280844 115.021413,27.1858619 L115.021413,25.24515 L112.445753,25.24515 C111.461851,25.24515 110.647299,25.4609265 110.006603,25.8963099 C109.36462,26.3304165 109.039443,26.8558132 109.039443,27.4667544 C109.039443,28.0432225 109.245496,28.5041416 109.655026,28.853342 C110.065843,29.2063729 110.627337,29.3812923 111.343371,29.3812923 Z M118.454123,33.1580198 C118.689152,33.2620777 119.090311,33.3259169 119.344658,33.3259169 C120.016905,33.3259169 120.485031,33.0533235 120.905507,32.0906283 L121.707182,30.2897242 L117.377498,20.0984331 L118.603512,20.0984331 L122.317613,28.9299491 L125.995655,20.0984331 L127.239055,20.0984331 L121.958308,32.4283377 C121.410337,33.6987379 120.548135,34.3096791 119.363975,34.3096791 C119.008534,34.3096791 118.539764,34.2471167 118.265456,34.1634873 L118.454123,33.1580198 Z" id="logotype"></path>
                    <text id="Em-breve-na" font-family="HelveticaNeue-Medium, Helvetica Neue" font-size="9.375" font-weight="400">
                        <tspan x="29.1373011" y="9">Em breve na</tspan>
                    </text>
                </g>
            </g>
        </g>
    </g>
</svg>

<?xml version="1.0" encoding="utf-8"?>
<!-- Generator: Adobe Illustrator 17.0.0, SVG Export Plug-In . SVG Version: 6.00 Build 0)  -->
<!DOCTYPE svg PUBLIC "-//W3C//DTD SVG 1.1//EN" "http://www.w3.org/Graphics/SVG/1.1/DTD/svg11.dtd">
<svg version="1.1" id="Layer_1" xmlns="http://www.w3.org/2000/svg" xmlns:xlink="http://www.w3.org/1999/xlink" x="0px" y="0px"
	 width="163px" height="51px" viewBox="0 0 163 51" enable-background="new 0 0 163 51" xml:space="preserve">
<title>85F52918-868F-4F85-9DC0-470D33C66226</title>
<desc>Created with sketchtool.</desc>
<g id="wecare">
	<g id="desktop_ui_kit" transform="translate(-1961.000000, -558.000000)">
		<g id="google-play-copy" transform="translate(1961.000000, 558.000000)">
			<path id="bg" fill="#16663B" d="M40.095,0.531h81c22.091,0,40,11.076,40,24.74l0,0c0,13.663-17.909,24.74-40,24.74h-81
				c-22.091,0-40-11.076-40-24.74l0,0C0.095,11.608,18.004,0.531,40.095,0.531z"/>
			<g id="google-play-_x2B_-logotype-_x2B_-Disponível-na-Copy" transform="translate(16.595382, 6.770833)">
				<g id="google-play" transform="translate(0.489367, 12.564490)">
					<path id="left" fill="#EBEBEB" d="M0.928,0.851C0.51,0.981,0.24,1.4,0.24,2.035l0.003,19.971c0,0.628,0.262,1.041,0.668,1.178
						l11.272-11.176L0.928,0.851"/>
					<path id="bottom" fill="#EBEBEB" d="M0.911,23.185c0.292,0.098,0.659,0.052,1.058-0.165l13.755-7.5l-3.542-3.511L0.911,23.185"
						/>
					<path id="right" fill="#EBEBEB" d="M15.726,15.52l4.69-2.557c0.951-0.52,0.951-1.367,0-1.886l-4.708-2.566l-3.526,3.496
						L15.726,15.52"/>
					<path id="top" fill="#EBEBEB" d="M15.708,8.511L1.969,1.022c-0.39-0.211-0.749-0.26-1.04-0.17l11.254,11.156L15.708,8.511"/>
				</g>
				<path id="logotype" fill="#EBEBEB" d="M40.816,29.459l-2.913,0.661c-1.18,0.184-2.24,0.347-3.363,0.347
					c-5.619,0-7.76-4.1-7.76-7.31c0-3.919,3.033-7.553,8.229-7.553c1.099,0,2.156,0.16,3.12,0.421
					c1.527,0.425,2.241,0.949,2.687,1.256l-1.692,1.593l-0.713,0.158l0.509-0.804c-0.689-0.667-1.956-1.899-4.359-1.899
					c-3.214,0-5.638,2.422-5.638,5.958c0,3.798,2.768,7.37,7.208,7.37c1.305,0,1.976-0.26,2.586-0.502v-3.256l-3.076,0.164
					l1.63-0.868h4.317l-0.528,0.504c-0.142,0.12-0.162,0.161-0.202,0.322c-0.021,0.184-0.041,0.769-0.041,0.974V29.459z
					 M47.497,30.207c-3.455,0-5.299-2.667-5.299-5.081c0-2.821,2.324-5.235,5.627-5.235c3.193,0,5.191,2.48,5.191,5.083
					C53.016,27.517,51.041,30.207,47.497,30.207z M50.215,28.464c0.522-0.689,0.652-1.55,0.652-2.389
					c0-1.897-0.914-5.516-3.607-5.516c-0.719,0-1.433,0.278-1.955,0.731c-0.85,0.754-1.001,1.701-1.001,2.631
					c0,2.128,1.066,5.639,3.695,5.639C48.847,29.56,49.713,29.152,50.215,28.464z M59.061,30.207c-3.454,0-5.302-2.667-5.302-5.081
					c0-2.821,2.323-5.235,5.628-5.235c3.194,0,5.195,2.48,5.195,5.083C64.582,27.517,62.604,30.207,59.061,30.207z M61.778,28.464
					c0.525-0.689,0.653-1.55,0.653-2.389c0-1.897-0.912-5.516-3.607-5.516c-0.717,0-1.439,0.278-1.959,0.731
					c-0.849,0.754-1,1.701-1,2.631c0,2.128,1.061,5.639,3.695,5.639C60.41,29.56,61.278,29.152,61.778,28.464z M72.533,20.948
					c0.499,0.407,1.54,1.27,1.54,2.907c0,1.595-0.907,2.347-1.822,3.059c-0.281,0.28-0.609,0.584-0.609,1.054
					c0,0.477,0.328,0.735,0.565,0.928l0.785,0.601c0.954,0.799,1.824,1.531,1.824,3.018c0,2.026-1.978,4.07-5.716,4.07
					c-3.149,0-4.671-1.487-4.671-3.081c0-0.776,0.39-1.874,1.675-2.627c1.347-0.817,3.172-0.926,4.149-0.99
					c-0.305-0.391-0.654-0.8-0.654-1.468c0-0.365,0.111-0.583,0.218-0.839c-0.238,0.022-0.477,0.045-0.695,0.045
					c-2.305,0-3.607-1.705-3.607-3.384c0-0.991,0.456-2.09,1.392-2.887c1.239-1.011,2.716-1.185,3.89-1.185h4.478l-1.392,0.779
					H72.533z M70.993,30.512c-0.178-0.023-0.285-0.023-0.5-0.023c-0.197,0-1.371,0.042-2.28,0.345
					c-0.481,0.174-1.871,0.689-1.871,2.22c0,1.527,1.501,2.628,3.823,2.628c2.086,0,3.194-0.991,3.194-2.326
					C73.358,32.257,72.642,31.677,70.993,30.512z M71.618,26.419c0.502-0.497,0.546-1.184,0.546-1.574
					c0-1.549-0.932-3.962-2.738-3.962c-0.563,0-1.174,0.28-1.52,0.714c-0.368,0.449-0.478,1.031-0.478,1.591
					c0,1.443,0.849,3.835,2.715,3.835C70.688,27.022,71.274,26.759,71.618,26.419z M78.472,28.315c0,0.837,0.151,0.967,0.865,1.033
					c0.372,0.043,0.743,0.063,1.11,0.106l-0.804,0.474h-3.829c0.502-0.646,0.589-0.711,0.589-1.141v-0.481l-0.008-12.809h-1.691
					l1.628-0.778h3.108c-0.674,0.387-0.875,0.622-0.961,1.376L78.472,28.315z M89.152,28.482l-1.039,0.972
					c-0.24,0.131-0.479,0.283-0.717,0.391c-0.722,0.325-1.456,0.407-2.108,0.407c-0.694,0-1.782-0.045-2.892-0.841
					c-1.542-1.077-2.216-2.928-2.216-4.542c0-3.34,2.742-4.978,4.979-4.978c0.782,0,1.585,0.194,2.238,0.603
					c1.086,0.712,1.366,1.637,1.522,2.132l-5.108,2.046l-1.673,0.129c0.542,2.739,2.41,4.331,4.475,4.331
					c1.032,0,1.797-0.334,2.5-0.678C89.112,28.455,89.253,28.382,89.152,28.482z M86.07,23.034c0.415-0.149,0.63-0.278,0.63-0.578
					c0-0.861-0.982-1.855-2.154-1.855c-0.868,0-2.498,0.67-2.498,2.998c0,0.363,0.044,0.75,0.066,1.137L86.07,23.034z
					 M95.415,28.574v5.487h-1.099V20.098h1.099v1.59c0.716-1.028,2.024-1.842,3.544-1.842c2.726,0,4.561,2.05,4.561,5.295
					c0,3.223-1.836,5.316-4.561,5.316C97.525,30.457,96.24,29.723,95.415,28.574z M102.34,25.141c0-2.446-1.286-4.311-3.566-4.311
					c-1.416,0-2.77,1.103-3.359,2.065v4.469c0.589,0.964,1.943,2.107,3.359,2.107C101.054,29.472,102.34,27.591,102.34,25.141z
					 M105.022,16.243h1.099v13.962h-1.099V16.243z M115.244,30.175c-0.073-0.35-0.129-0.659-0.169-0.917
					c-0.033-0.257-0.053-0.52-0.053-0.788c-0.377,0.548-0.91,1.005-1.592,1.364c-0.683,0.362-1.331,0.539-2.22,0.539
					c-1.071,0-1.902-0.261-2.495-0.791c-0.591-0.529-0.889-1.246-0.889-2.153c0-0.906,0.431-1.641,1.29-2.204
					c0.859-0.565,1.969-0.846,3.343-0.846h2.563v-1.256c0-0.723-0.249-1.292-0.745-1.705c-0.498-0.413-1.198-0.622-2.104-0.622
					c-0.829,0-1.501,0.191-2.013,0.562c-0.507,0.379-0.763,0.849-0.763,1.415h-1.125l-0.023-0.054
					c-0.041-0.764,0.312-1.433,1.061-2.012c0.746-0.578,1.722-0.868,2.925-0.868c1.198,0,2.168,0.286,2.899,0.857
					c0.73,0.565,1.097,1.381,1.097,2.449v4.986c0,0.358,0.017,0.704,0.062,1.041c0.046,0.338,0.12,0.675,0.219,1.001H115.244z
					 M111.343,29.381c0.934,0,1.605-0.207,2.29-0.616c0.681-0.407,1.145-0.937,1.388-1.579v-1.941h-2.576
					c-0.984,0-1.798,0.216-2.439,0.651c-0.642,0.434-0.967,0.96-0.967,1.57c0,0.576,0.206,1.037,0.616,1.387
					C110.066,29.206,110.627,29.381,111.343,29.381z M118.454,33.158c0.235,0.104,0.636,0.168,0.891,0.168
					c0.672,0,1.14-0.273,1.561-1.235l0.802-1.801l-4.33-10.191h1.226l3.714,8.832l3.678-8.832h1.243l-5.281,12.33
					c-0.548,1.27-1.41,1.881-2.594,1.881c-0.355,0-0.824-0.063-1.099-0.146L118.454,33.158z"/>
				<text transform="matrix(1 0 0 1 29.1373 9)" fill="#EBEBEB" font-family="'HelveticaNeue-Medium'" font-size="9.375">Download na</text>
			</g>
		</g>
	</g>
</g>
</svg>
